X:1
T:Sunny Arvo  
C:Ian Hayden, 2021
L:1/8
M:6/8
K:Am
E|:EAc Bcd|edB A2G|ABA ABd|edc e^fg|
age egd|edc Bcd|ABc d>ed|1BAA A2E:|2 BAA A2B|]
|:cea daa|eaa daa|ege edc|edc B2d|
g^fe e2A|=fed dcB|ABc ded|1BAA A2B:|2BAA A3|]
